X: 41069
T: Trip To Nenagh, The
R: reel
M: 4/4
K: Dmixolydian
|:d2 AG FDD2|A,DFA dcAG|Addc d=fed|c2Gc EcGc|
d2 AG FDD2|A,DFA dcAG|Addc ADFA|G2EG FDD2:|
|:d2fd Adfd|^cdef g2fe|d2AG FDD2|EGAB c2Bc|
Add^c dfed|^cdef g2fg|a2ea ^caec|dBAG FDD2:|

